assets/img/braze_icons/camera-02.svg

<svg fill="none" height="24" viewBox="0 0 24 24" width="24" xmlns="http://www.w3.org/2000/svg"><path clip-rule="evenodd" d="m8.55772 1c-.1102-.000023-.20607-.000047-.29756.00549-1.15683.07007-2.16985.8002-2.60214 1.87552-.03418.08504-.06448.176-.0993.28054l-.09687.29063c-.10905.32716-.41522.54783-.76007.54783-2.04444 0-3.70178 1.65734-3.70178 3.70178v8.53951c-.000012.805-.000022 1.4693.04419 2.0105.04593.5621.14449 1.0788.39179 1.5642.38349.7526.99541 1.3645 1.74806 1.748.48533.2473 1.00204.3459 1.56414.3918.54119.0442 1.20554.0442 2.0105.0442h10.48262c.805 0 1.4693 0 2.0105-.0442.5621-.0459 1.0788-.1445 1.5642-.3918.7526-.3835 1.3645-.9954 1.748-1.748.2473-.4854.3459-1.0021.3918-1.5642.0442-.5412.0442-1.2055.0442-2.0105v-8.53951c0-2.04444-1.6573-3.70178-3.7018-3.70178-.3448 0-.651-.22067-.7601-.54783l-.0968-.2907c-.0349-.1045-.0651-.19546-.0993-.28047-.4323-1.07532-1.4453-1.80545-2.6022-1.87552-.0914-.005537-.1873-.005513-.2975-.00549zm7.94228 11c0 2.4853-2.0147 4.5-4.5 4.5-2.48528 0-4.5-2.0147-4.5-4.5 0-2.48528 2.01472-4.5 4.5-4.5 2.4853 0 4.5 2.01472 4.5 4.5z" fill="#801ed7" fill-rule="evenodd"/></svg>

<svg width="24" height="24" viewBox="0 0 24 24" fill="none" xmlns="http://www.w3.org/2000/svg">
<path fill-rule="evenodd" clip-rule="evenodd" d="M8.55772 1C8.44752 0.999977 8.35165 0.999953 8.26016 1.00549C7.10333 1.07556 6.09031 1.80569 5.65802 2.88101C5.62384 2.96605 5.59354 3.05701 5.55872 3.16155L5.46185 3.45218C5.3528 3.77934 5.04663 4.00001 4.70178 4.00001C2.65734 4.00001 1 5.65735 1 7.70179V16.2413C0.999988 17.0463 0.999978 17.7106 1.04419 18.2518C1.09012 18.8139 1.18868 19.3306 1.43598 19.816C1.81947 20.5686 2.43139 21.1805 3.18404 21.564C3.66937 21.8113 4.18608 21.9099 4.74818 21.9558C5.28937 22 5.95372 22 6.75868 22H17.2413C18.0463 22 18.7106 22 19.2518 21.9558C19.8139 21.9099 20.3306 21.8113 20.816 21.564C21.5686 21.1805 22.1805 20.5686 22.564 19.816C22.8113 19.3306 22.9099 18.8139 22.9558 18.2518C23 17.7106 23 17.0463 23 16.2413V7.70179C23 5.65735 21.3427 4.00001 19.2982 4.00001C18.9534 4.00001 18.6472 3.77934 18.5381 3.45218L18.4413 3.16148C18.4064 3.05698 18.3762 2.96602 18.342 2.88101C17.9097 1.80569 16.8967 1.07556 15.7398 1.00549C15.6484 0.999953 15.5525 0.999977 15.4423 1H8.55772ZM16.5 12C16.5 14.4853 14.4853 16.5 12 16.5C9.51472 16.5 7.5 14.4853 7.5 12C7.5 9.51472 9.51472 7.5 12 7.5C14.4853 7.5 16.5 9.51472 16.5 12Z" fill="#801ED7"/>
</svg>
